assets/icons/qvision/switch_video.svg

<svg xmlns="http://www.w3.org/2000/svg" height="24" viewBox="0 0 24 24" width="24"><path d="M0 0h24v24H0z" fill="none"/><path d="M18 9.5V6c0-.55-.45-1-1-1H3c-.55 0-1 .45-1 1v12c0 .55.45 1 1 1h14c.55 0 1-.45 1-1v-3.5l4 4v-13l-4 4zm-5 6V13H7v2.5L3.5 12 7 8.5V11h6V8.5l3.5 3.5-3.5 3.5z"/></svg>

<svg width="24" height="24" viewBox="0 0 24 24" fill="none" xmlns="http://www.w3.org/2000/svg">
<g clip-path="url(#clip0_147_3731)">
<path d="M18 9.5V6C18 5.45 17.55 5 17 5H3C2.45 5 2 5.45 2 6V18C2 18.55 2.45 19 3 19H17C17.55 19 18 18.55 18 18V14.5L22 18.5V5.5L18 9.5ZM13 15.5V13H7V15.5L3.5 12L7 8.5V11H13V8.5L16.5 12L13 15.5Z" fill="#323232"/>
</g>
<defs>
<clipPath id="clip0_147_3731">
<rect width="24" height="24" fill="white"/>
</clipPath>
</defs>
</svg>
